X: 1049
T:True Blue Hornpipe
M:2/2
L:1/8
S:Armitt MS
K:G major
dc|dgdB GBdB|cBAG FGAB|cBcd edcB|A2D2D2de|BgdB GBdB|cBAG FGAB|cedc BAGF|
F2F2F2:||:DC|B,DGB dBGD|EGed cBAG|FGAB cBAG|A2GFED2 DC|B,DGB dBGD|EGed c
BAG|FGAB c2A2F2A2|G2G2G2:||
